icons/originals/terminal.svg

<?xml version="1.0" encoding="UTF-8" standalone="no"?>
<svg id="svg2" xmlns="http://www.w3.org/2000/svg" xml:space="preserve" height="100" width="100" version="1.1" viewBox="0 0 31.6 27.2">
  <g id="g4" transform="matrix(1 0 0 .84684 .035141 -1.8836)"><path id="path6" d="m29.3 2.3h-27c-1.3 0-2.3 1-2.3 2.2v22.6c0 1.2 1 2.3 2.3 2.3h27.1c1.2 0 2.3-1 2.3-2.3v-22.6c0-1.2-1-2.3-2.3-2.3zm-22 1.6c0.6 0 1.1 0.5 1.1 1.1s-0.5 1.1-1.1 1.1-1.1-0.5-1.1-1.1 0.5-1.1 1.1-1.1zm-3.4 0c0.6 0 1.1 0.5 1.1 1.1 0.1 0.7-0.4 1.2-1.1 1.2-0.6 0-1.1-0.5-1.1-1.1s0.5-1.2 1.1-1.2zm25.4 23.2h-27v-19.2h27.1v19.2z"/><polygon id="polygon8" points="5.4 17.3 12.6 13.9 12.6 12.6 5.4 9.2 5.4 10.8 11 13.2 11 13.3 5.4 15.7"/><rect id="rect10" y="12.5" width="3.9" x="16.1" height="1.5"/></g>
</svg>

<svg xmlns:svg="http://www.w3.org/2000/svg" xmlns="http://www.w3.org/2000/svg" version="1.1" width="100" height="100" viewBox="0 0 31.6 27.2" xml:space="preserve">
  <g transform="translate(0.03514118,-2.2205212)">
    <path d="M29.3 2.3H2.3C1 2.3 0 3.3 0 4.5v22.6c0 1.2 1 2.3 2.3 2.3h27.1c1.2 0 2.3-1 2.3-2.3V4.5c0-1.2-1-2.3-2.3-2.3zM7.3 3.9c0.6 0 1.1 0.5 1.1 1.1 0 0.6-0.5 1.1-1.1 1.1-0.6 0-1.1-0.5-1.1-1.1 0-0.6 0.5-1.1 1.1-1.1zm-3.4 0c0.6 0 1.1 0.5 1.1 1.1C5.1 5.7 4.6 6.2 3.9 6.2 3.3 6.2 2.8 5.7 2.8 5.1 2.8 4.5 3.3 3.9 3.9 3.9zM29.3 27.1H2.3V7.9h27.1c0 0 0 19.2 0 19.2z"/>
    <polygon points="5.4 15.7 5.4 17.3 12.6 13.9 12.6 12.6 5.4 9.2 5.4 10.8 11 13.2 11 13.3"/>
    <rect width="3.9" height="1.5" x="16.1" y="12.5"/>
  </g>
</svg>
